X: 536
T: Abbey, The
R: reel
M: 4/4
K: Adorian
|:~A3B A2GE|A2GA BedB|~A3B AGED|1 G2GA B^cdB:|2 G2GA B^cdg||
eg~g2 a3a|gabg agfd|eg~g2 a2ga|bgef gedg|
eg~g2 agbg|agbg ageg|degb a2ga|bgef gedB||

